X:1
T:Soyez seur
T:Jean Bastard
T:Source : Livre XXV de 28 chansons nouvelles à 4 parties---Paris---P.Attaingnant---1547. Editor : André Vierendeels (04/08/18) Notes : Original clefs : C1, C3, C4, F3 Original note values have been halved Editorial accidentals above the staff 
T:Soyez seur
T:©
T:©
T:©
T:©
C:Jean Bastard
Z:©
%%score [ 1 [ 2 3 ] 4 ]
L:1/8
Q:1/4=120
M:2/2
K:F
V:1 treble nm="Soprano" snm="S"
V:2 treble-8 nm="Tenor 1" snm="T 1"
V:3 treble-8 nm="Tenor 2" snm="T 2"
V:4 bass nm="Bass" snm="B"
V:1
 F4 G2 G2 | A4 B2 B2- | B2 A2 G4 | F8 | z2 A2 B2 B2 | c3 B AG G2- |"^#" G2 F2 G4 | z4 F4 | %8
w: Soy- ez seur|que la re-|* pen- ten-|ce|suy- voit de|bien pres le _ pe-|* * ché,|da-|
 G2 G2 A4 | B2 B4 A2 | G4 F4- | F4 z2 A2 | B2 B2 c3 B | AG G4 F2 | G4 F4 | G2 G2 FEDC | %16
w: voir in- ter-|mis l'a- li-|an- ce|_ qui|noz cueurs a- *|voit _ at- ta-|ché, he-|las, i'en ay _ _ _|
 D2 d2 c2 B2- | B2 A2 B4 | z2 B2 B2 B2 | A2 A2 G2 B2- | B2 AG F4 | z2 A2 A2 G2 | F6 G2 | E2 E2 D4 | %24
w: _ le cueur fa-|* * ché,|et si ne|scay au- cun moy-|* * * en|pour mon- strer|mon cueur|es- tre tien,|
 z2 D2 F2 G2 | A4 F2 G2- | G2 F2 G4 |[M:2/4] F4 |:[M:2/2] z4 F4 | G2 G2 A4 | B2 B4 A2 | G4 F4- | %32
w: si- non en|di- sant quand|_ ie'y pen-|se,|he-|las, a- my,|ie con- *|gnois bien|
 F4 z2 A2 | B2 B2 c3 B | AG G4 F2 | G8 :| %36
w: _ que|ne puis ny- yer|mon of- fen- *|ce.|
V:2
 d4 d2 d2 | f4 f4 | f2 f2 d4 | d4 z2 d2 | g2 f2 d2 g2- | g2 g2 e2 dc | d2 d2 B4 | z4 d4 | %8
w: Soy- ez seur|que la|re- pen- ten-|ce suy-|voit de pres le|_ _ _ _ _|* pr- ché,|da-|
 d2 d2 f4 | f4 f2 f2 | d4 d4 | z2 d2 g2 f2 | d2 g4 g2 |"^b" e2 dc d2 d2 | B4 d4 | d2 e2 d4- | %16
w: voir in- ter-|mis l'a- li-|an- ce|qui noz cueuers|a- voit at-|* * * * ta-|ché, he-|las, i'en ay|
 d2 f2 f2 de | f4 d4 | z2 f2 f2 f2 | f4 e2 d2- | d2 c2 d4 | z2 f2 f2 e2 | d6 d2 | c2 c2 A4 | %24
w: _ le cueur fa- *|* ché,|et si ne|scay au- cun|_ moy- en,|pour mon- strer|mon cueur|es- tre tien,|
 z2 d2 d2 d2 | f6 f2 |"^b" e2 d3 c c2 |[M:2/4] d4 |:[M:2/2] z4 d4 | d2 d2 f4 | f4 f2 f2 | d4 d4 | %32
w: si- non en|di- sant|quand ie'y _ pen-|se,|he-|las, a- my,|ie con- gnois|_ bien|
 z2 d2 g2 f2 | d2 g4 g2 |"^b" e2 dc d4 | B8 :| %36
w: que ne puis|ny- er mon|of- * * fen-|ce.|
V:3
 A4 B2 B2 | c4 d4 | c2 A2 B4 | A6 B2 | c2 d3 c BA | G2 ed cB AG | A4 G4 | z4 A4 | B2 B2 c4 | %9
w: Soy- ez seur|que la|re- pen- ten-|ce suy-|voit de _ _ _|_ bien _ pres _ le _|pe- ché,|da-|voir in- ter-|
 d4 c2 A2 | B4 A4 | A2 B2 c2 d2- | dcBA G2 ed | cBAG A4 | G4 A4 | B2 c2 AGFE | F2 B2 A2 B2 | %17
w: mis l'a- li-|an- ce|qui noz cueurs a-|* * * * voit at- *|* * * * ta-|ché, he-|las, i'en ay _ _ _|_ le cueur fa-|
"^b" c4 B4 | z2 d2 d2 d2 | c2 A2 B4 | G4 A4 | z2 d2 c2 c2 | A6 B2 | G2 G2 F4 | z2 A2 A2 B2 | %25
w: * ché,|et si ne|scay au- cun|moy- en|pour mon- strer|mon cueur|es- tre tien,|si- non en|
 c4 A2 B2- | B2 A2 G4 |[M:2/4] A4 |:[M:2/2] z4 A4 | B2 B2 c4 | d6 c2 | B4 A4 | A2 B2 c2 d2- | %33
w: di- sant quand|_ ie'y pen-|se,|he-|las, a- my,|ie con-|gnois bien,|que ie ne puis|
"^b" dcBA G2 ed | cB AG A4 | G8 :| %36
w: _ _ _ _ ny- er _|mon _ of- * fen-|ce.|
V:4
 D,4 G,2 G,2 | F,4 B,4 | F,2 F,2 G,4 | D,4 z2 D,2 | E,2 F,2 G,3 F, | E,D, C,4 E,2 | D,2 D,2 G,4 | %7
w: Soy- ez seur|que la|re- pen- ten-|ce suy-|voit de bien _|_ _ _ pres|le pe- ché,|
 z4 D,4 | G,2 G,2 F,4 | B,4 F,2 F,2 | G,4 D,4 | z2 D,2 E,2 F,2 |"^b" G,3 F, E,D, C,2- | %13
w: da-|voir in- ter-|mis l'a- li-|an- ce|qui noz cueurs|a- * * * voit|
"^b""^b" C,2 E,2 D,2 D,2 | G,4 D,4 | G,2 C,2 D,4- | D,2 B,,2 F,2 G,2 | F,4 B,,4 | %18
w: _ at- * ta-|ché, he-|las, i'en ay|_ le cueur fa-|* ché,|
 z2 B,,2 B,,2 B,,2 |"^b" F,2 F,2 G,F,E,D, |"^b""^b" E,2 E,2 D,4 | z2 D,2 F,2 C,2 | D,6 B,,2 | %23
w: et si ne|scay au- cun _ _ _|_ moy- en,|pour mon- strer|mon cueur|
 C,2 C,2 D,4 | z2 D,2 D,2 G,2 | F,6 B,,2 |"^b" C,2 D,2 E,4 |[M:2/4] D,4 |:[M:2/2] z4 D,4 | %29
w: es- tre tien,|si- non en|di- sant|quan ie'y pen|se,|ha-|
"^#" G,2 G,2 F,4 | B,6 F,2 | G,4 D,4 | z2 D,2 E,2 F,2 |"^b" G,3 F, E,D, C,2- |"^b" C,2 E,2 D,4 | %35
w: las a- my,|ie con-|gnois bien,|que ie ne|puis ny- er _ mon|_ of- fen-|
 G,8 :| %36
w: ce.|

